DEFDAT simulacao
DECL LDAT LCPDATP21={VEL 1,ACC 100,APO_DIST 10,APO_FAC 50.0,ORI_TYP #VAR,CIRC_TYP #BASE,JERK_FAC 50.0}
DECL FDAT FP21={TOOL_NO 1,BASE_NO 1,IPO_FRAME #BASE,POINT2[] " ",TQ_STATE FALSE}
DECL E6POS XP21={X 550,Y 240,Z 460,A 180,B 0,C 180,S 2,T 2}
DECL LDAT LCPDATP22={VEL 1,ACC 100,APO_DIST 10,APO_FAC 50.0,ORI_TYP #VAR,CIRC_TYP #BASE,JERK_FAC 50.0}
DECL FDAT FP22={TOOL_NO 1,BASE_NO 1,IPO_FRAME #BASE,POINT2[] " ",TQ_STATE FALSE}
DECL E6POS XP22={X 550,Y 240,Z 300,A 180,B 0,C 180,S 2,T 2}
DECL LDAT LCPDATP23={VEL 1,ACC 100,APO_DIST 10,APO_FAC 50.0,ORI_TYP #VAR,CIRC_TYP #BASE,JERK_FAC 50.0}
DECL FDAT FP23={TOOL_NO 1,BASE_NO 1,IPO_FRAME #BASE,POINT2[] " ",TQ_STATE FALSE}
DECL E6POS XP23={X 610,Y 180,Z 200,A 180,B 0,C 180,S 2,T 2}
DECL LDAT LCPDATP24={VEL 1,ACC 100,APO_DIST 10,APO_FAC 50.0,ORI_TYP #VAR,CIRC_TYP #BASE,JERK_FAC 50.0}
DECL FDAT FP24={TOOL_NO 1,BASE_NO 1,IPO_FRAME #BASE,POINT2[] " ",TQ_STATE FALSE}
DECL E6POS XP24={X 340,Y 240,Z 460,A 0,B 0,C 180,S 2,T 2}
DECL LDAT LCPDATP25={VEL 1,ACC 100,APO_DIST 10,APO_FAC 50.0,ORI_TYP #VAR,CIRC_TYP #BASE,JERK_FAC 50.0}
DECL FDAT FP25={TOOL_NO 1,BASE_NO 1,IPO_FRAME #BASE,POINT2[] " ",TQ_STATE FALSE}
DECL E6POS XP25={X 340,Y 240,Z 300,A 0,B 0,C 180,S 2,T 2}
DECL LDAT LCPDATP26={VEL 1,ACC 100,APO_DIST 10,APO_FAC 50.0,ORI_TYP #VAR,CIRC_TYP #BASE,JERK_FAC 50.0}
DECL FDAT FP26={TOOL_NO 1,BASE_NO 1,IPO_FRAME #BASE,POINT2[] " ",TQ_STATE FALSE}
DECL E6POS XP26={X 400,Y 180,Z 200,A 0,B 0,C 180,S 2,T 2}
DECL LDAT LCPDATP27={VEL 1,ACC 100,APO_DIST 10,APO_FAC 50.0,ORI_TYP #VAR,CIRC_TYP #BASE,JERK_FAC 50.0}
DECL FDAT FP27={TOOL_NO 1,BASE_NO 1,IPO_FRAME #BASE,POINT2[] " ",TQ_STATE FALSE}
DECL E6POS XP27={X 130,Y 240,Z 460,A 0,B 0,C 180,S 2,T 2}
DECL LDAT LCPDATP28={VEL 1,ACC 100,APO_DIST 10,APO_FAC 50.0,ORI_TYP #VAR,CIRC_TYP #BASE,JERK_FAC 50.0}
DECL FDAT FP28={TOOL_NO 1,BASE_NO 1,IPO_FRAME #BASE,POINT2[] " ",TQ_STATE FALSE}
DECL E6POS XP28={X 130,Y 240,Z 300,A 0,B 0,C 180,S 2,T 2}
DECL LDAT LCPDATP29={VEL 1,ACC 100,APO_DIST 10,APO_FAC 50.0,ORI_TYP #VAR,CIRC_TYP #BASE,JERK_FAC 50.0}
DECL FDAT FP29={TOOL_NO 1,BASE_NO 1,IPO_FRAME #BASE,POINT2[] " ",TQ_STATE FALSE}
DECL E6POS XP29={X 190,Y 180,Z 200,A 0,B 0,C 180,S 2,T 2}
DECL LDAT LCPDATP30={VEL 1,ACC 100,APO_DIST 10,APO_FAC 50.0,ORI_TYP #VAR,CIRC_TYP #BASE,JERK_FAC 50.0}
DECL FDAT FP30={TOOL_NO 1,BASE_NO 1,IPO_FRAME #BASE,POINT2[] " ",TQ_STATE FALSE}
DECL E6POS XP30={X 500,Y 500,Z 460,A 180,B 0,C 180,S 2,T 2}
DECL LDAT LCPDATP31={VEL 1,ACC 100,APO_DIST 10,APO_FAC 50.0,ORI_TYP #VAR,CIRC_TYP #BASE,JERK_FAC 50.0}
DECL FDAT FP31={TOOL_NO 1,BASE_NO 1,IPO_FRAME #BASE,POINT2[] " ",TQ_STATE FALSE}
DECL E6POS XP31={X 500,Y 500,Z 300,A 180,B 0,C 180,S 2,T 2}
DECL LDAT LCPDATP32={VEL 1,ACC 100,APO_DIST 10,APO_FAC 50.0,ORI_TYP #VAR,CIRC_TYP #BASE,JERK_FAC 50.0}
DECL FDAT FP32={TOOL_NO 1,BASE_NO 1,IPO_FRAME #BASE,POINT2[] " ",TQ_STATE FALSE}
DECL E6POS XP32={X 560,Y 440,Z 200,A 180,B 0,C 180,S 2,T 2}
DECL LDAT LCPDATP33={VEL 1,ACC 100,APO_DIST 10,APO_FAC 50.0,ORI_TYP #VAR,CIRC_TYP #BASE,JERK_FAC 50.0}
DECL FDAT FP33={TOOL_NO 1,BASE_NO 1,IPO_FRAME #BASE,POINT2[] " ",TQ_STATE FALSE}
DECL E6POS XP33={X 180,Y 500,Z 460,A 0,B 0,C 180,S 2,T 2}
DECL LDAT LCPDATP34={VEL 1,ACC 100,APO_DIST 10,APO_FAC 50.0,ORI_TYP #VAR,CIRC_TYP #BASE,JERK_FAC 50.0}
DECL FDAT FP34={TOOL_NO 1,BASE_NO 1,IPO_FRAME #BASE,POINT2[] " ",TQ_STATE FALSE}
DECL E6POS XP34={X 180,Y 500,Z 300,A 0,B 0,C 180,S 2,T 2}
DECL LDAT LCPDATP35={VEL 1,ACC 100,APO_DIST 10,APO_FAC 50.0,ORI_TYP #VAR,CIRC_TYP #BASE,JERK_FAC 50.0}
DECL FDAT FP35={TOOL_NO 1,BASE_NO 1,IPO_FRAME #BASE,POINT2[] " ",TQ_STATE FALSE}
DECL E6POS XP35={X 240,Y 440,Z 200,A 0,B 0,C 180,S 2,T 2}
DECL LDAT LCPDATP36={VEL 1,ACC 100,APO_DIST 10,APO_FAC 50.0,ORI_TYP #VAR,CIRC_TYP #BASE,JERK_FAC 50.0}
DECL FDAT FP36={TOOL_NO 1,BASE_NO 1,IPO_FRAME #BASE,POINT2[] " ",TQ_STATE FALSE}
DECL E6POS XP36={X 500,Y 710,Z 460,A 180,B 0,C 180,S 2,T 2}
DECL LDAT LCPDATP37={VEL 1,ACC 100,APO_DIST 10,APO_FAC 50.0,ORI_TYP #VAR,CIRC_TYP #BASE,JERK_FAC 50.0}
DECL FDAT FP37={TOOL_NO 1,BASE_NO 1,IPO_FRAME #BASE,POINT2[] " ",TQ_STATE FALSE}
DECL E6POS XP37={X 500,Y 710,Z 300,A 180,B 0,C 180,S 2,T 2}
DECL LDAT LCPDATP38={VEL 1,ACC 100,APO_DIST 10,APO_FAC 50.0,ORI_TYP #VAR,CIRC_TYP #BASE,JERK_FAC 50.0}
DECL FDAT FP38={TOOL_NO 1,BASE_NO 1,IPO_FRAME #BASE,POINT2[] " ",TQ_STATE FALSE}
DECL E6POS XP38={X 560,Y 650,Z 200,A 180,B 0,C 180,S 2,T 2}
DECL LDAT LCPDATP39={VEL 1,ACC 100,APO_DIST 10,APO_FAC 50.0,ORI_TYP #VAR,CIRC_TYP #BASE,JERK_FAC 50.0}
DECL FDAT FP39={TOOL_NO 1,BASE_NO 1,IPO_FRAME #BASE,POINT2[] " ",TQ_STATE FALSE}
DECL E6POS XP39={X 180,Y 710,Z 460,A 0,B 0,C 180,S 2,T 2}
DECL LDAT LCPDATP40={VEL 1,ACC 100,APO_DIST 10,APO_FAC 50.0,ORI_TYP #VAR,CIRC_TYP #BASE,JERK_FAC 50.0}
DECL FDAT FP40={TOOL_NO 1,BASE_NO 1,IPO_FRAME #BASE,POINT2[] " ",TQ_STATE FALSE}
DECL E6POS XP40={X 180,Y 710,Z 300,A 0,B 0,C 180,S 2,T 2}
DECL LDAT LCPDATP41={VEL 1,ACC 100,APO_DIST 10,APO_FAC 50.0,ORI_TYP #VAR,CIRC_TYP #BASE,JERK_FAC 50.0}
DECL FDAT FP41={TOOL_NO 1,BASE_NO 1,IPO_FRAME #BASE,POINT2[] " ",TQ_STATE FALSE}
DECL E6POS XP41={X 240,Y 650,Z 200,A 0,B 0,C 180,S 2,T 2}
DECL LDAT LCPDATP42={VEL 1,ACC 100,APO_DIST 10,APO_FAC 50.0,ORI_TYP #VAR,CIRC_TYP #BASE,JERK_FAC 50.0}
DECL FDAT FP42={TOOL_NO 1,BASE_NO 1,IPO_FRAME #BASE,POINT2[] " ",TQ_STATE FALSE}
DECL E6POS XP42={X 500,Y 920,Z 460,A 180,B 0,C 180,S 2,T 2}
DECL LDAT LCPDATP43={VEL 1,ACC 100,APO_DIST 10,APO_FAC 50.0,ORI_TYP #VAR,CIRC_TYP #BASE,JERK_FAC 50.0}
DECL FDAT FP43={TOOL_NO 1,BASE_NO 1,IPO_FRAME #BASE,POINT2[] " ",TQ_STATE FALSE}
DECL E6POS XP43={X 500,Y 920,Z 300,A 180,B 0,C 180,S 2,T 2}
DECL LDAT LCPDATP44={VEL 1,ACC 100,APO_DIST 10,APO_FAC 50.0,ORI_TYP #VAR,CIRC_TYP #BASE,JERK_FAC 50.0}
DECL FDAT FP44={TOOL_NO 1,BASE_NO 1,IPO_FRAME #BASE,POINT2[] " ",TQ_STATE FALSE}
DECL E6POS XP44={X 560,Y 860,Z 200,A 180,B 0,C 180,S 2,T 2}
DECL LDAT LCPDATP45={VEL 1,ACC 100,APO_DIST 10,APO_FAC 50.0,ORI_TYP #VAR,CIRC_TYP #BASE,JERK_FAC 50.0}
DECL FDAT FP45={TOOL_NO 1,BASE_NO 1,IPO_FRAME #BASE,POINT2[] " ",TQ_STATE FALSE}
DECL E6POS XP45={X 180,Y 920,Z 460,A 0,B 0,C 180,S 2,T 2}
DECL LDAT LCPDATP46={VEL 1,ACC 100,APO_DIST 10,APO_FAC 50.0,ORI_TYP #VAR,CIRC_TYP #BASE,JERK_FAC 50.0}
DECL FDAT FP46={TOOL_NO 1,BASE_NO 1,IPO_FRAME #BASE,POINT2[] " ",TQ_STATE FALSE}
DECL E6POS XP46={X 180,Y 920,Z 300,A 0,B 0,C 180,S 2,T 2}
DECL LDAT LCPDATP47={VEL 1,ACC 100,APO_DIST 10,APO_FAC 50.0,ORI_TYP #VAR,CIRC_TYP #BASE,JERK_FAC 50.0}
DECL FDAT FP47={TOOL_NO 1,BASE_NO 1,IPO_FRAME #BASE,POINT2[] " ",TQ_STATE FALSE}
DECL E6POS XP47={X 240,Y 860,Z 200,A 0,B 0,C 180,S 2,T 2}
DECL LDAT LCPDATP48={VEL 1,ACC 100,APO_DIST 10,APO_FAC 50.0,ORI_TYP #VAR,CIRC_TYP #BASE,JERK_FAC 50.0}
DECL FDAT FP48={TOOL_NO 1,BASE_NO 1,IPO_FRAME #BASE,POINT2[] " ",TQ_STATE FALSE}
DECL E6POS XP48={X 500,Y 1130,Z 460,A 180,B 0,C 180,S 2,T 2}
DECL LDAT LCPDATP49={VEL 1,ACC 100,APO_DIST 10,APO_FAC 50.0,ORI_TYP #VAR,CIRC_TYP #BASE,JERK_FAC 50.0}
DECL FDAT FP49={TOOL_NO 1,BASE_NO 1,IPO_FRAME #BASE,POINT2[] " ",TQ_STATE FALSE}
DECL E6POS XP49={X 500,Y 1130,Z 300,A 180,B 0,C 180,S 2,T 2}
DECL LDAT LCPDATP50={VEL 1,ACC 100,APO_DIST 10,APO_FAC 50.0,ORI_TYP #VAR,CIRC_TYP #BASE,JERK_FAC 50.0}
DECL FDAT FP50={TOOL_NO 1,BASE_NO 1,IPO_FRAME #BASE,POINT2[] " ",TQ_STATE FALSE}
DECL E6POS XP50={X 560,Y 1070,Z 200,A 180,B 0,C 180,S 2,T 2}
DECL LDAT LCPDATP51={VEL 1,ACC 100,APO_DIST 10,APO_FAC 50.0,ORI_TYP #VAR,CIRC_TYP #BASE,JERK_FAC 50.0}
DECL FDAT FP51={TOOL_NO 1,BASE_NO 1,IPO_FRAME #BASE,POINT2[] " ",TQ_STATE FALSE}
DECL E6POS XP51={X 180,Y 1130,Z 460,A 0,B 0,C 180,S 2,T 2}
DECL LDAT LCPDATP52={VEL 1,ACC 100,APO_DIST 10,APO_FAC 50.0,ORI_TYP #VAR,CIRC_TYP #BASE,JERK_FAC 50.0}
DECL FDAT FP52={TOOL_NO 1,BASE_NO 1,IPO_FRAME #BASE,POINT2[] " ",TQ_STATE FALSE}
DECL E6POS XP52={X 180,Y 1130,Z 300,A 0,B 0,C 180,S 2,T 2}
DECL LDAT LCPDATP53={VEL 1,ACC 100,APO_DIST 10,APO_FAC 50.0,ORI_TYP #VAR,CIRC_TYP #BASE,JERK_FAC 50.0}
DECL FDAT FP53={TOOL_NO 1,BASE_NO 1,IPO_FRAME #BASE,POINT2[] " ",TQ_STATE FALSE}
DECL E6POS XP53={X 240,Y 1070,Z 200,A 0,B 0,C 180,S 2,T 2}
DECL LDAT LCPDATP54={VEL 1,ACC 100,APO_DIST 10,APO_FAC 50.0,ORI_TYP #VAR,CIRC_TYP #BASE,JERK_FAC 50.0}
DECL FDAT FP54={TOOL_NO 1,BASE_NO 1,IPO_FRAME #BASE,POINT2[] " ",TQ_STATE FALSE}
DECL E6POS XP54={X 500,Y 190,Z 660,A 180,B 0,C 180,S 2,T 2}
DECL LDAT LCPDATP55={VEL 1,ACC 100,APO_DIST 10,APO_FAC 50.0,ORI_TYP #VAR,CIRC_TYP #BASE,JERK_FAC 50.0}
DECL FDAT FP55={TOOL_NO 1,BASE_NO 1,IPO_FRAME #BASE,POINT2[] " ",TQ_STATE FALSE}
DECL E6POS XP55={X 500,Y 190,Z 500,A 180,B 0,C 180,S 2,T 2}
DECL LDAT LCPDATP56={VEL 1,ACC 100,APO_DIST 10,APO_FAC 50.0,ORI_TYP #VAR,CIRC_TYP #BASE,JERK_FAC 50.0}
DECL FDAT FP56={TOOL_NO 1,BASE_NO 1,IPO_FRAME #BASE,POINT2[] " ",TQ_STATE FALSE}
DECL E6POS XP56={X 560,Y 130,Z 400,A 180,B 0,C 180,S 2,T 2}
DECL LDAT LCPDATP57={VEL 1,ACC 100,APO_DIST 10,APO_FAC 50.0,ORI_TYP #VAR,CIRC_TYP #BASE,JERK_FAC 50.0}
DECL FDAT FP57={TOOL_NO 1,BASE_NO 1,IPO_FRAME #BASE,POINT2[] " ",TQ_STATE FALSE}
DECL E6POS XP57={X 180,Y 190,Z 660,A 0,B 0,C 180,S 2,T 2}
DECL LDAT LCPDATP58={VEL 1,ACC 100,APO_DIST 10,APO_FAC 50.0,ORI_TYP #VAR,CIRC_TYP #BASE,JERK_FAC 50.0}
DECL FDAT FP58={TOOL_NO 1,BASE_NO 1,IPO_FRAME #BASE,POINT2[] " ",TQ_STATE FALSE}
DECL E6POS XP58={X 180,Y 190,Z 500,A 0,B 0,C 180,S 2,T 2}
DECL LDAT LCPDATP59={VEL 1,ACC 100,APO_DIST 10,APO_FAC 50.0,ORI_TYP #VAR,CIRC_TYP #BASE,JERK_FAC 50.0}
DECL FDAT FP59={TOOL_NO 1,BASE_NO 1,IPO_FRAME #BASE,POINT2[] " ",TQ_STATE FALSE}
DECL E6POS XP59={X 240,Y 130,Z 400,A 0,B 0,C 180,S 2,T 2}
DECL LDAT LCPDATP60={VEL 1,ACC 100,APO_DIST 10,APO_FAC 50.0,ORI_TYP #VAR,CIRC_TYP #BASE,JERK_FAC 50.0}
DECL FDAT FP60={TOOL_NO 1,BASE_NO 1,IPO_FRAME #BASE,POINT2[] " ",TQ_STATE FALSE}
DECL E6POS XP60={X 500,Y 400,Z 660,A 180,B 0,C 180,S 2,T 2}
DECL LDAT LCPDATP61={VEL 1,ACC 100,APO_DIST 10,APO_FAC 50.0,ORI_TYP #VAR,CIRC_TYP #BASE,JERK_FAC 50.0}
DECL FDAT FP61={TOOL_NO 1,BASE_NO 1,IPO_FRAME #BASE,POINT2[] " ",TQ_STATE FALSE}
DECL E6POS XP61={X 500,Y 400,Z 500,A 180,B 0,C 180,S 2,T 2}
DECL LDAT LCPDATP62={VEL 1,ACC 100,APO_DIST 10,APO_FAC 50.0,ORI_TYP #VAR,CIRC_TYP #BASE,JERK_FAC 50.0}
DECL FDAT FP62={TOOL_NO 1,BASE_NO 1,IPO_FRAME #BASE,POINT2[] " ",TQ_STATE FALSE}
DECL E6POS XP62={X 560,Y 340,Z 400,A 180,B 0,C 180,S 2,T 2}
DECL LDAT LCPDATP63={VEL 1,ACC 100,APO_DIST 10,APO_FAC 50.0,ORI_TYP #VAR,CIRC_TYP #BASE,JERK_FAC 50.0}
DECL FDAT FP63={TOOL_NO 1,BASE_NO 1,IPO_FRAME #BASE,POINT2[] " ",TQ_STATE FALSE}
DECL E6POS XP63={X 180,Y 400,Z 660,A 0,B 0,C 180,S 2,T 2}
DECL LDAT LCPDATP64={VEL 1,ACC 100,APO_DIST 10,APO_FAC 50.0,ORI_TYP #VAR,CIRC_TYP #BASE,JERK_FAC 50.0}
DECL FDAT FP64={TOOL_NO 1,BASE_NO 1,IPO_FRAME #BASE,POINT2[] " ",TQ_STATE FALSE}
DECL E6POS XP64={X 180,Y 400,Z 500,A 0,B 0,C 180,S 2,T 2}
DECL LDAT LCPDATP65={VEL 1,ACC 100,APO_DIST 10,APO_FAC 50.0,ORI_TYP #VAR,CIRC_TYP #BASE,JERK_FAC 50.0}
DECL FDAT FP65={TOOL_NO 1,BASE_NO 1,IPO_FRAME #BASE,POINT2[] " ",TQ_STATE FALSE}
DECL E6POS XP65={X 240,Y 340,Z 400,A 0,B 0,C 180,S 2,T 2}
DECL LDAT LCPDATP66={VEL 1,ACC 100,APO_DIST 10,APO_FAC 50.0,ORI_TYP #VAR,CIRC_TYP #BASE,JERK_FAC 50.0}
DECL FDAT FP66={TOOL_NO 1,BASE_NO 1,IPO_FRAME #BASE,POINT2[] " ",TQ_STATE FALSE}
DECL E6POS XP66={X 500,Y 610,Z 660,A 180,B 0,C 180,S 2,T 2}
DECL LDAT LCPDATP67={VEL 1,ACC 100,APO_DIST 10,APO_FAC 50.0,ORI_TYP #VAR,CIRC_TYP #BASE,JERK_FAC 50.0}
DECL FDAT FP67={TOOL_NO 1,BASE_NO 1,IPO_FRAME #BASE,POINT2[] " ",TQ_STATE FALSE}
DECL E6POS XP67={X 500,Y 610,Z 500,A 180,B 0,C 180,S 2,T 2}
DECL LDAT LCPDATP68={VEL 1,ACC 100,APO_DIST 10,APO_FAC 50.0,ORI_TYP #VAR,CIRC_TYP #BASE,JERK_FAC 50.0}
DECL FDAT FP68={TOOL_NO 1,BASE_NO 1,IPO_FRAME #BASE,POINT2[] " ",TQ_STATE FALSE}
DECL E6POS XP68={X 560,Y 550,Z 400,A 180,B 0,C 180,S 2,T 2}
DECL LDAT LCPDATP69={VEL 1,ACC 100,APO_DIST 10,APO_FAC 50.0,ORI_TYP #VAR,CIRC_TYP #BASE,JERK_FAC 50.0}
DECL FDAT FP69={TOOL_NO 1,BASE_NO 1,IPO_FRAME #BASE,POINT2[] " ",TQ_STATE FALSE}
DECL E6POS XP69={X 180,Y 610,Z 660,A 0,B 0,C 180,S 2,T 2}
DECL LDAT LCPDATP70={VEL 1,ACC 100,APO_DIST 10,APO_FAC 50.0,ORI_TYP #VAR,CIRC_TYP #BASE,JERK_FAC 50.0}
DECL FDAT FP70={TOOL_NO 1,BASE_NO 1,IPO_FRAME #BASE,POINT2[] " ",TQ_STATE FALSE}
DECL E6POS XP70={X 180,Y 610,Z 500,A 0,B 0,C 180,S 2,T 2}
DECL LDAT LCPDATP71={VEL 1,ACC 100,APO_DIST 10,APO_FAC 50.0,ORI_TYP #VAR,CIRC_TYP #BASE,JERK_FAC 50.0}
DECL FDAT FP71={TOOL_NO 1,BASE_NO 1,IPO_FRAME #BASE,POINT2[] " ",TQ_STATE FALSE}
DECL E6POS XP71={X 240,Y 550,Z 400,A 0,B 0,C 180,S 2,T 2}
DECL LDAT LCPDATP72={VEL 1,ACC 100,APO_DIST 10,APO_FAC 50.0,ORI_TYP #VAR,CIRC_TYP #BASE,JERK_FAC 50.0}
DECL FDAT FP72={TOOL_NO 1,BASE_NO 1,IPO_FRAME #BASE,POINT2[] " ",TQ_STATE FALSE}
DECL E6POS XP72={X 500,Y 820,Z 660,A 180,B 0,C 180,S 2,T 2}
DECL LDAT LCPDATP73={VEL 1,ACC 100,APO_DIST 10,APO_FAC 50.0,ORI_TYP #VAR,CIRC_TYP #BASE,JERK_FAC 50.0}
DECL FDAT FP73={TOOL_NO 1,BASE_NO 1,IPO_FRAME #BASE,POINT2[] " ",TQ_STATE FALSE}
DECL E6POS XP73={X 500,Y 820,Z 500,A 180,B 0,C 180,S 2,T 2}
DECL LDAT LCPDATP74={VEL 1,ACC 100,APO_DIST 10,APO_FAC 50.0,ORI_TYP #VAR,CIRC_TYP #BASE,JERK_FAC 50.0}
DECL FDAT FP74={TOOL_NO 1,BASE_NO 1,IPO_FRAME #BASE,POINT2[] " ",TQ_STATE FALSE}
DECL E6POS XP74={X 560,Y 760,Z 400,A 180,B 0,C 180,S 2,T 2}
DECL LDAT LCPDATP75={VEL 1,ACC 100,APO_DIST 10,APO_FAC 50.0,ORI_TYP #VAR,CIRC_TYP #BASE,JERK_FAC 50.0}
DECL FDAT FP75={TOOL_NO 1,BASE_NO 1,IPO_FRAME #BASE,POINT2[] " ",TQ_STATE FALSE}
DECL E6POS XP75={X 180,Y 820,Z 660,A 0,B 0,C 180,S 2,T 2}
DECL LDAT LCPDATP76={VEL 1,ACC 100,APO_DIST 10,APO_FAC 50.0,ORI_TYP #VAR,CIRC_TYP #BASE,JERK_FAC 50.0}
DECL FDAT FP76={TOOL_NO 1,BASE_NO 1,IPO_FRAME #BASE,POINT2[] " ",TQ_STATE FALSE}
DECL E6POS XP76={X 180,Y 820,Z 500,A 0,B 0,C 180,S 2,T 2}
DECL LDAT LCPDATP77={VEL 1,ACC 100,APO_DIST 10,APO_FAC 50.0,ORI_TYP #VAR,CIRC_TYP #BASE,JERK_FAC 50.0}
DECL FDAT FP77={TOOL_NO 1,BASE_NO 1,IPO_FRAME #BASE,POINT2[] " ",TQ_STATE FALSE}
DECL E6POS XP77={X 240,Y 760,Z 400,A 0,B 0,C 180,S 2,T 2}
DECL LDAT LCPDATP78={VEL 1,ACC 100,APO_DIST 10,APO_FAC 50.0,ORI_TYP #VAR,CIRC_TYP #BASE,JERK_FAC 50.0}
DECL FDAT FP78={TOOL_NO 1,BASE_NO 1,IPO_FRAME #BASE,POINT2[] " ",TQ_STATE FALSE}
DECL E6POS XP78={X 550,Y 1080,Z 660,A 180,B 0,C 180,S 2,T 2}
DECL LDAT LCPDATP79={VEL 1,ACC 100,APO_DIST 10,APO_FAC 50.0,ORI_TYP #VAR,CIRC_TYP #BASE,JERK_FAC 50.0}
DECL FDAT FP79={TOOL_NO 1,BASE_NO 1,IPO_FRAME #BASE,POINT2[] " ",TQ_STATE FALSE}
DECL E6POS XP79={X 550,Y 1080,Z 500,A 180,B 0,C 180,S 2,T 2}
DECL LDAT LCPDATP80={VEL 1,ACC 100,APO_DIST 10,APO_FAC 50.0,ORI_TYP #VAR,CIRC_TYP #BASE,JERK_FAC 50.0}
DECL FDAT FP80={TOOL_NO 1,BASE_NO 1,IPO_FRAME #BASE,POINT2[] " ",TQ_STATE FALSE}
DECL E6POS XP80={X 610,Y 1020,Z 400,A 180,B 0,C 180,S 2,T 2}
DECL LDAT LCPDATP81={VEL 1,ACC 100,APO_DIST 10,APO_FAC 50.0,ORI_TYP #VAR,CIRC_TYP #BASE,JERK_FAC 50.0}
DECL FDAT FP81={TOOL_NO 1,BASE_NO 1,IPO_FRAME #BASE,POINT2[] " ",TQ_STATE FALSE}
DECL E6POS XP81={X 340,Y 1080,Z 660,A 0,B 0,C 180,S 2,T 2}
DECL LDAT LCPDATP82={VEL 1,ACC 100,APO_DIST 10,APO_FAC 50.0,ORI_TYP #VAR,CIRC_TYP #BASE,JERK_FAC 50.0}
DECL FDAT FP82={TOOL_NO 1,BASE_NO 1,IPO_FRAME #BASE,POINT2[] " ",TQ_STATE FALSE}
DECL E6POS XP82={X 340,Y 1080,Z 500,A 0,B 0,C 180,S 2,T 2}
DECL LDAT LCPDATP83={VEL 1,ACC 100,APO_DIST 10,APO_FAC 50.0,ORI_TYP #VAR,CIRC_TYP #BASE,JERK_FAC 50.0}
DECL FDAT FP83={TOOL_NO 1,BASE_NO 1,IPO_FRAME #BASE,POINT2[] " ",TQ_STATE FALSE}
DECL E6POS XP83={X 400,Y 1020,Z 400,A 0,B 0,C 180,S 2,T 2}
DECL LDAT LCPDATP84={VEL 1,ACC 100,APO_DIST 10,APO_FAC 50.0,ORI_TYP #VAR,CIRC_TYP #BASE,JERK_FAC 50.0}
DECL FDAT FP84={TOOL_NO 1,BASE_NO 1,IPO_FRAME #BASE,POINT2[] " ",TQ_STATE FALSE}
DECL E6POS XP84={X 130,Y 1080,Z 660,A 0,B 0,C 180,S 2,T 2}
DECL LDAT LCPDATP85={VEL 1,ACC 100,APO_DIST 10,APO_FAC 50.0,ORI_TYP #VAR,CIRC_TYP #BASE,JERK_FAC 50.0}
DECL FDAT FP85={TOOL_NO 1,BASE_NO 1,IPO_FRAME #BASE,POINT2[] " ",TQ_STATE FALSE}
DECL E6POS XP85={X 130,Y 1080,Z 500,A 0,B 0,C 180,S 2,T 2}
DECL LDAT LCPDATP86={VEL 1,ACC 100,APO_DIST 10,APO_FAC 50.0,ORI_TYP #VAR,CIRC_TYP #BASE,JERK_FAC 50.0}
DECL FDAT FP86={TOOL_NO 1,BASE_NO 1,IPO_FRAME #BASE,POINT2[] " ",TQ_STATE FALSE}
DECL E6POS XP86={X 190,Y 1020,Z 400,A 0,B 0,C 180,S 2,T 2}
ENDDAT